source/svgs/bowtie/uEA79-file-type-cpp.svg

<svg xmlns="http://www.w3.org/2000/svg" viewBox="0 0 448 448" enable-background="new 0 0 448 448"><path d="M256 384v64h-32v-64h-64v-32h64v-64h32v64h64v32h-64zm-96-64v-32h-64v-64h-32v64h-64v32h64v64h32v-64h64zm256-198.625v326.625h-128v-32h96v-256h-128v-128h-160v160h-32v-192h230.623l121.377 121.375zm-38.623 6.625l-89.377-89.377v89.377h89.377z"/></svg>

<svg xmlns="http://www.w3.org/2000/svg" viewBox="0 0 448 448"><path d="M256 384v64h-32v-64h-64v-32h64v-64h32v64h64v32h-64zm-96-64v-32H96v-64H64v64H0v32h64v64h32v-64h64zm256-198.625V448H288v-32h96V160H256V32H96v160H64V0h230.623L416 121.375zM377.377 128L288 38.623V128h89.377z"/></svg>
